docs/images/footer/copy.svg

<svg width="18" height="18" viewBox="0 0 18 18" fill="none" xmlns="http://www.w3.org/2000/svg">
<path d="M9.3735 12.9263C8.1555 12.9263 7.22625 12.6113 6.58575 11.9813C5.94525 11.3513 5.625 10.275 5.625 8.7525C5.625 7.3875 5.94525 6.3375 6.58575 5.6025C7.22625 4.8675 8.15025 4.5 9.35775 4.5C9.67275 4.5 9.972 4.52625 10.2555 4.57875C10.539 4.62075 10.791 4.68375 11.0115 4.76775C11.232 4.85175 11.4053 4.941 11.5312 5.0355C11.6678 5.13 11.736 5.2245 11.736 5.319C11.736 5.403 11.715 5.508 11.673 5.634C11.631 5.7495 11.5785 5.8545 11.5155 5.949C11.4525 6.033 11.3843 6.075 11.3108 6.075C11.2373 6.075 11.1113 6.03825 10.9328 5.96475C10.7648 5.89125 10.5443 5.81775 10.2713 5.74425C9.99825 5.67075 9.6675 5.634 9.279 5.634C8.5335 5.634 7.9665 5.89125 7.578 6.40575C7.2 6.92025 7.011 7.692 7.011 8.721C7.011 9.7815 7.2 10.5585 7.578 11.052C7.9665 11.5455 8.5755 11.7923 9.405 11.7923C9.762 11.7923 10.0823 11.745 10.3658 11.6505C10.6493 11.556 10.8855 11.4615 11.0745 11.367C11.2635 11.2725 11.3895 11.2253 11.4525 11.2253C11.526 11.2253 11.589 11.2725 11.6415 11.367C11.7045 11.451 11.757 11.5508 11.799 11.6663C11.841 11.7818 11.862 11.8815 11.862 11.9655C11.862 12.06 11.7833 12.165 11.6258 12.2805C11.4788 12.396 11.2845 12.501 11.043 12.5955C10.8015 12.69 10.5338 12.7688 10.2398 12.8318C9.94575 12.8948 9.657 12.9263 9.3735 12.9263Z" fill="white"/>
<circle cx="9" cy="9" r="8.25" stroke="white" stroke-width="1.5"/>
</svg>

<svg xmlns="http://www.w3.org/2000/svg" width="18" height="18" fill="none"><path fill="#fff" d="M9.374 12.926q-1.828 0-2.788-.945t-.961-3.229q0-2.047.96-3.15Q7.547 4.5 9.359 4.5q.473 0 .897.079.426.063.756.189.331.126.52.268.205.142.205.283 0 .126-.063.315-.063.172-.158.315-.093.126-.204.126t-.378-.11a5 5 0 0 0-.662-.22 4 4 0 0 0-.992-.111q-1.117 0-1.701.772-.567.771-.567 2.315 0 1.59.567 2.331.582.74 1.827.74.535 0 .96-.142t.71-.283q.284-.142.378-.142.11 0 .189.142.094.126.157.3a.9.9 0 0 1 .063.299q0 .141-.236.315-.22.173-.583.314a5 5 0 0 1-.803.237 4 4 0 0 1-.867.094"/><circle cx="9" cy="9" r="8.25" stroke="#fff" stroke-width="1.5"/></svg>
